Newaita/actions/24/distribute-horizontal-margin.svg

<svg height="24" viewBox="0 0 24 24" width="24" xmlns="http://www.w3.org/2000/svg"><g fill="#424242"><path d="m3.96875 2.171875c-1.097656 0-1.984375.886719-1.984375 1.984375v15.875c0 1.101562.886719 1.988281 1.984375 1.988281h15.875c1.101562 0 1.988281-.886719 1.988281-1.988281v-15.875c0-1.097656-.886719-1.984375-1.988281-1.984375zm.992188 1.984375h13.890624c.550782 0 .992188.441406.992188.992188v13.890624c0 .550782-.441406.992188-.992188.992188h-13.890624c-.550782 0-.992188-.441406-.992188-.992188v-13.890624c0-.550782.441406-.992188.992188-.992188zm0 0"/><path d="m10.914062 6.636719c0 .273437-.222656.496093-.496093.496093h-3.96875c-.273438 0-.496094-.222656-.496094-.496093 0-.273438.222656-.496094.496094-.496094h3.96875c.273437 0 .496093.222656.496093.496094zm0 0"/><path d="m10.914062 17.523438v.054687c0 .261719-.222656.46875-.496093.46875h-3.96875c-.273438 0-.496094-.207031-.496094-.46875v-.054687c0-.257813.222656-.46875.496094-.46875h3.96875c.273437 0 .496093.210937.496093.46875zm0 0"/><path d="m10.441406 18.046875h-.003906c-.261719 0-.476562-.21875-.476562-.496094v-10.914062c0-.273438.214843-.496094.476562-.496094h.003906c.261719 0 .472656.222656.472656.496094v10.914062c0 .277344-.210937.496094-.472656.496094zm0 0"/><path d="m6.46875 18.046875h-.039062c-.261719 0-.476563-.210937-.476563-.472656v-10.957031c0-.261719.214844-.476563.476563-.476563h.039062c.265625 0 .476562.214844.476562.476563v10.957031c0 .261719-.210937.472656-.476562.472656zm0 0"/><path d="m17.859375 6.636719c0 .273437-.21875.496093-.496094.496093h-3.96875c-.273437 0-.496093-.222656-.496093-.496093 0-.273438.222656-.496094.496093-.496094h3.96875c.277344 0 .496094.222656.496094.496094zm0 0"/><path d="m17.859375 17.523438v.054687c0 .261719-.21875.46875-.496094.46875h-3.96875c-.273437 0-.496093-.207031-.496093-.46875v-.054687c0-.257813.222656-.46875.496093-.46875h3.96875c.277344 0 .496094.210937.496094.46875zm0 0"/><path d="m17.386719 18.046875h-.003907c-.261718 0-.472656-.21875-.472656-.496094v-10.914062c0-.273438.210938-.496094.472656-.496094h.003907c.261719 0 .472656.222656.472656.496094v10.914062c0 .277344-.210937.496094-.472656.496094zm0 0"/><path d="m13.414062 18.046875h-.039062c-.261719 0-.476562-.210937-.476562-.472656v-10.957031c0-.261719.214843-.476563.476562-.476563h.039062c.265626 0 .476563.214844.476563.476563v10.957031c0 .261719-.210937.472656-.476563.472656zm0 0"/></g></svg>

<svg xmlns="http://www.w3.org/2000/svg" xmlns:xlink="http://www.w3.org/1999/xlink" width="24px" height="24px" viewBox="0 0 24 24" version="1.1">
<g id="surface1">
     <defs>
  <style id="current-color-scheme" type="text/css">
   .ColorScheme-Text { color:#424242; } .ColorScheme-Highlight { color:#eeeeee; }
  </style>
 </defs>
<path style="fill:currentColor" class="ColorScheme-Text" d="M 3.96875 2.171875 C 2.871094 2.171875 1.984375 3.058594 1.984375 4.15625 L 1.984375 20.03125 C 1.984375 21.132812 2.871094 22.019531 3.96875 22.019531 L 19.84375 22.019531 C 20.945312 22.019531 21.832031 21.132812 21.832031 20.03125 L 21.832031 4.15625 C 21.832031 3.058594 20.945312 2.171875 19.84375 2.171875 Z M 4.960938 4.15625 L 18.851562 4.15625 C 19.402344 4.15625 19.84375 4.597656 19.84375 5.148438 L 19.84375 19.039062 C 19.84375 19.589844 19.402344 20.03125 18.851562 20.03125 L 4.960938 20.03125 C 4.410156 20.03125 3.96875 19.589844 3.96875 19.039062 L 3.96875 5.148438 C 3.96875 4.597656 4.410156 4.15625 4.960938 4.15625 Z M 4.960938 4.15625 "/>
     <defs>
  <style id="current-color-scheme" type="text/css">
   .ColorScheme-Text { color:#424242; } .ColorScheme-Highlight { color:#eeeeee; }
  </style>
 </defs>
<path style="fill:currentColor" class="ColorScheme-Text" d="M 10.914062 6.636719 C 10.914062 6.910156 10.691406 7.132812 10.417969 7.132812 L 6.449219 7.132812 C 6.175781 7.132812 5.953125 6.910156 5.953125 6.636719 C 5.953125 6.363281 6.175781 6.140625 6.449219 6.140625 L 10.417969 6.140625 C 10.691406 6.140625 10.914062 6.363281 10.914062 6.636719 Z M 10.914062 6.636719 "/>
     <defs>
  <style id="current-color-scheme" type="text/css">
   .ColorScheme-Text { color:#424242; } .ColorScheme-Highlight { color:#eeeeee; }
  </style>
 </defs>
<path style="fill:currentColor" class="ColorScheme-Text" d="M 10.914062 17.523438 L 10.914062 17.578125 C 10.914062 17.839844 10.691406 18.046875 10.417969 18.046875 L 6.449219 18.046875 C 6.175781 18.046875 5.953125 17.839844 5.953125 17.578125 L 5.953125 17.523438 C 5.953125 17.265625 6.175781 17.054688 6.449219 17.054688 L 10.417969 17.054688 C 10.691406 17.054688 10.914062 17.265625 10.914062 17.523438 Z M 10.914062 17.523438 "/>
     <defs>
  <style id="current-color-scheme" type="text/css">
   .ColorScheme-Text { color:#424242; } .ColorScheme-Highlight { color:#eeeeee; }
  </style>
 </defs>
<path style="fill:currentColor" class="ColorScheme-Text" d="M 10.441406 18.046875 L 10.4375 18.046875 C 10.175781 18.046875 9.960938 17.828125 9.960938 17.550781 L 9.960938 6.636719 C 9.960938 6.363281 10.175781 6.140625 10.4375 6.140625 L 10.441406 6.140625 C 10.703125 6.140625 10.914062 6.363281 10.914062 6.636719 L 10.914062 17.550781 C 10.914062 17.828125 10.703125 18.046875 10.441406 18.046875 Z M 10.441406 18.046875 "/>
     <defs>
  <style id="current-color-scheme" type="text/css">
   .ColorScheme-Text { color:#424242; } .ColorScheme-Highlight { color:#eeeeee; }
  </style>
 </defs>
<path style="fill:currentColor" class="ColorScheme-Text" d="M 6.46875 18.046875 L 6.429688 18.046875 C 6.167969 18.046875 5.953125 17.835938 5.953125 17.574219 L 5.953125 6.617188 C 5.953125 6.355469 6.167969 6.140625 6.429688 6.140625 L 6.46875 6.140625 C 6.734375 6.140625 6.945312 6.355469 6.945312 6.617188 L 6.945312 17.574219 C 6.945312 17.835938 6.734375 18.046875 6.46875 18.046875 Z M 6.46875 18.046875 "/>
     <defs>
  <style id="current-color-scheme" type="text/css">
   .ColorScheme-Text { color:#424242; } .ColorScheme-Highlight { color:#eeeeee; }
  </style>
 </defs>
<path style="fill:currentColor" class="ColorScheme-Text" d="M 17.859375 6.636719 C 17.859375 6.910156 17.640625 7.132812 17.363281 7.132812 L 13.394531 7.132812 C 13.121094 7.132812 12.898438 6.910156 12.898438 6.636719 C 12.898438 6.363281 13.121094 6.140625 13.394531 6.140625 L 17.363281 6.140625 C 17.640625 6.140625 17.859375 6.363281 17.859375 6.636719 Z M 17.859375 6.636719 "/>
     <defs>
  <style id="current-color-scheme" type="text/css">
   .ColorScheme-Text { color:#424242; } .ColorScheme-Highlight { color:#eeeeee; }
  </style>
 </defs>
<path style="fill:currentColor" class="ColorScheme-Text" d="M 17.859375 17.523438 L 17.859375 17.578125 C 17.859375 17.839844 17.640625 18.046875 17.363281 18.046875 L 13.394531 18.046875 C 13.121094 18.046875 12.898438 17.839844 12.898438 17.578125 L 12.898438 17.523438 C 12.898438 17.265625 13.121094 17.054688 13.394531 17.054688 L 17.363281 17.054688 C 17.640625 17.054688 17.859375 17.265625 17.859375 17.523438 Z M 17.859375 17.523438 "/>
     <defs>
  <style id="current-color-scheme" type="text/css">
   .ColorScheme-Text { color:#424242; } .ColorScheme-Highlight { color:#eeeeee; }
  </style>
 </defs>
<path style="fill:currentColor" class="ColorScheme-Text" d="M 17.386719 18.046875 L 17.382812 18.046875 C 17.121094 18.046875 16.910156 17.828125 16.910156 17.550781 L 16.910156 6.636719 C 16.910156 6.363281 17.121094 6.140625 17.382812 6.140625 L 17.386719 6.140625 C 17.648438 6.140625 17.859375 6.363281 17.859375 6.636719 L 17.859375 17.550781 C 17.859375 17.828125 17.648438 18.046875 17.386719 18.046875 Z M 17.386719 18.046875 "/>
     <defs>
  <style id="current-color-scheme" type="text/css">
   .ColorScheme-Text { color:#424242; } .ColorScheme-Highlight { color:#eeeeee; }
  </style>
 </defs>
<path style="fill:currentColor" class="ColorScheme-Text" d="M 13.414062 18.046875 L 13.375 18.046875 C 13.113281 18.046875 12.898438 17.835938 12.898438 17.574219 L 12.898438 6.617188 C 12.898438 6.355469 13.113281 6.140625 13.375 6.140625 L 13.414062 6.140625 C 13.679688 6.140625 13.890625 6.355469 13.890625 6.617188 L 13.890625 17.574219 C 13.890625 17.835938 13.679688 18.046875 13.414062 18.046875 Z M 13.414062 18.046875 "/>
</g>
</svg>
